Sweet-Rainbow/icons/clamav.svg

<?xml version="1.0" encoding="UTF-8" standalone="no"?>
<!-- Generator: Gravit.io -->

<svg
   xmlns:dc="http://purl.org/dc/elements/1.1/"
   xmlns:cc="http://creativecommons.org/ns#"
   xmlns:rdf="http://www.w3.org/1999/02/22-rdf-syntax-ns#"
   xmlns:svg="http://www.w3.org/2000/svg"
   xmlns="http://www.w3.org/2000/svg"
   xmlns:sodipodi="http://sodipodi.sourceforge.net/DTD/sodipodi-0.dtd"
   xmlns:inkscape="http://www.inkscape.org/namespaces/inkscape"
   style="isolation:isolate"
   viewBox="0 0 36 36"
   width="48"
   height="48"
   version="1.1"
   id="svg9"
   sodipodi:docname="clamav.svg"
   inkscape:version="0.92.4 (5da689c313, 2019-01-14)">
  <metadata
     id="metadata15">
    <rdf:RDF>
      <cc:Work
         rdf:about="">
        <dc:format>image/svg+xml</dc:format>
        <dc:type
           rdf:resource="http://purl.org/dc/dcmitype/StillImage" />
        <dc:title></dc:title>
      </cc:Work>
    </rdf:RDF>
  </metadata>
  <defs
     id="defs13" />
  <sodipodi:namedview
     pagecolor="#ffffff"
     bordercolor="#666666"
     borderopacity="1"
     objecttolerance="10"
     gridtolerance="10"
     guidetolerance="10"
     inkscape:pageopacity="0"
     inkscape:pageshadow="2"
     inkscape:window-width="640"
     inkscape:window-height="480"
     id="namedview11"
     showgrid="false"
     inkscape:zoom="29.365243"
     inkscape:cx="25.325443"
     inkscape:cy="32"
     inkscape:current-layer="svg9"
     units="px" />
  <linearGradient
     id="_lgradient_19"
     x1="0.47183794"
     y1="0.9763158"
     x2="0.57741463"
     y2="0.10441688"
     gradientTransform="matrix(44.386,0,0,47.5,1.807,0.25)"
     gradientUnits="userSpaceOnUse">
    <stop
       offset="0%"
       stop-opacity="1"
       style="stop-color:rgb(255,229,59)"
       id="stop2" />
    <stop
       offset="98.69565217391305%"
       stop-opacity="1"
       style="stop-color:rgb(255,0,91)"
       id="stop4" />
  </linearGradient>
  <g
     id="g826"
     transform="matrix(0.75789474,0,0,0.75789474,-0.18947376,-0.18947376)">
    <path
       id="path7"
       d="m 30.388,24.135 -5.319,2.659 -0.002,0.001 c 2.135,3.587 6.627,5.455 10.197,3.461 3.57,-1.995 4.748,-6.374 2.613,-9.866 v 0 0 l -5.622,2.812 c 0.728,2.156 0.005,4.97 -1.833,7.582 -0.006,-10e-4 -0.017,0 -0.017,0 1.087,-2.051 1.076,-4.436 -0.017,-6.649 z M 15.745,23.202 10.123,20.39 c -2.135,3.492 -0.957,7.871 2.613,9.866 3.57,1.994 8.062,0.126 10.197,-3.461 v 0 0 l -0.002,-0.001 -5.319,-2.659 c -1.093,2.213 -1.104,4.598 -0.017,6.649 0,0 -0.011,-10e-4 -0.017,0 -1.838,-2.612 -2.561,-5.426 -1.833,-7.582 z M 24,24.954 v 0 C 23.964,24.927 23.923,24.905 23.883,24.885 L 11.073,18.48 c -0.47,-0.235 -1.025,-0.289 -1.537,-0.139 -0.513,0.139 -0.95,0.47 -1.228,0.929 -0.897,1.451 -1.377,3.127 -1.388,4.846 0.022,3.33 1.858,6.405 4.783,8.006 1.281,0.715 2.722,1.089 4.195,1.078 1.793,-0.01 3.555,-0.534 5.092,-1.484 1.164,-0.714 2.189,-1.634 3.01,-2.722 0.821,1.088 1.846,2.008 3.01,2.722 1.537,0.95 3.299,1.474 5.092,1.484 1.473,0.011 2.914,-0.363 4.195,-1.078 2.925,-1.601 4.761,-4.676 4.783,-8.006 -0.011,-1.719 -0.491,-3.395 -1.388,-4.846 v 0 c -0.278,-0.459 -0.715,-0.79 -1.228,-0.929 -0.512,-0.15 -1.067,-0.096 -1.537,0.139 l -12.81,6.405 c -0.04,0.02 -0.081,0.042 -0.117,0.069 z M 5.009,25.557 c 0,-5.038 1.997,-9.874 5.562,-13.429 3.555,-3.565 8.39,-5.572 13.429,-5.572 5.039,0 9.874,2.007 13.429,5.572 3.565,3.555 5.562,8.391 5.562,13.429 v 0 c 0,5.039 -1.997,9.864 -5.562,13.429 -3.555,3.565 -8.39,5.562 -13.429,5.562 -5.039,0 -9.874,-1.997 -13.429,-5.562 C 7.006,35.421 5.009,30.596 5.009,25.557 Z M 40.412,10.609 c 3.712,4.078 5.781,9.404 5.781,14.948 v 0 c 0,5.882 -2.338,11.529 -6.501,15.692 C 35.539,45.412 29.882,47.75 24,47.75 18.118,47.75 12.461,45.412 8.308,41.249 4.145,37.086 1.807,31.439 1.807,25.557 v 0 c 0,-5.359 1.934,-10.515 5.416,-14.537 v 0 L 3.992,0.25 c 2.43,3.646 6.099,5.611 9.347,5.854 C 16.573,4.313 20.241,3.353 24,3.353 c 3.569,0 7.055,0.865 10.166,2.486 3.307,-0.015 7.179,-1.8 9.842,-5.405 z"
       inkscape:connector-curvature="0"
       style="fill:url(#_lgradient_19);fill-rule:evenodd" />
  </g>
</svg>

<?xml version="1.0" encoding="UTF-8" standalone="no"?><!-- Generator: Gravit.io --><svg xmlns="http://www.w3.org/2000/svg" xmlns:xlink="http://www.w3.org/1999/xlink" style="isolation:isolate" viewBox="0 0 48 48" width="48pt" height="48pt"><linearGradient id="_lgradient_19" x1="0.47183793606490987" y1="0.9763157894736842" x2="0.5774146603325829" y2="0.10441687920241127" gradientTransform="matrix(44.386,0,0,47.5,1.807,0.25)" gradientUnits="userSpaceOnUse"><stop offset="0%" stop-opacity="1" style="stop-color:rgb(255,229,59)"/><stop offset="98.69565217391305%" stop-opacity="1" style="stop-color:rgb(255,0,91)"/></linearGradient><path d=" M 30.388 24.135 L 25.069 26.794 L 25.067 26.795 C 27.202 30.382 31.694 32.25 35.264 30.256 C 38.834 28.261 40.012 23.882 37.877 20.39 L 37.877 20.39 L 37.877 20.39 L 32.255 23.202 C 32.983 25.358 32.26 28.172 30.422 30.784 C 30.416 30.783 30.405 30.784 30.405 30.784 C 31.492 28.733 31.481 26.348 30.388 24.135 Z  M 15.745 23.202 L 10.123 20.39 C 7.988 23.882 9.166 28.261 12.736 30.256 C 16.306 32.25 20.798 30.382 22.933 26.795 L 22.933 26.795 L 22.933 26.795 L 22.931 26.794 L 17.612 24.135 C 16.519 26.348 16.508 28.733 17.595 30.784 C 17.595 30.784 17.584 30.783 17.578 30.784 C 15.74 28.172 15.017 25.358 15.745 23.202 L 15.745 23.202 L 15.745 23.202 Z  M 24 24.954 L 24 24.954 C 23.964 24.927 23.923 24.905 23.883 24.885 L 11.073 18.48 C 10.603 18.245 10.048 18.191 9.536 18.341 C 9.023 18.48 8.586 18.811 8.308 19.27 C 7.411 20.721 6.931 22.397 6.92 24.116 C 6.942 27.446 8.778 30.521 11.703 32.122 C 12.984 32.837 14.425 33.211 15.898 33.2 C 17.691 33.19 19.453 32.666 20.99 31.716 C 22.154 31.002 23.179 30.082 24 28.994 C 24.821 30.082 25.846 31.002 27.01 31.716 C 28.547 32.666 30.309 33.19 32.102 33.2 C 33.575 33.211 35.016 32.837 36.297 32.122 C 39.222 30.521 41.058 27.446 41.08 24.116 C 41.069 22.397 40.589 20.721 39.692 19.27 L 39.692 19.27 C 39.414 18.811 38.977 18.48 38.464 18.341 C 37.952 18.191 37.397 18.245 36.927 18.48 L 24.117 24.885 C 24.077 24.905 24.036 24.927 24 24.954 L 24 24.954 Z  M 5.009 25.557 C 5.009 20.519 7.006 15.683 10.571 12.128 C 14.126 8.563 18.961 6.556 24 6.556 C 29.039 6.556 33.874 8.563 37.429 12.128 C 40.994 15.683 42.991 20.519 42.991 25.557 L 42.991 25.557 C 42.991 30.596 40.994 35.421 37.429 38.986 C 33.874 42.551 29.039 44.548 24 44.548 C 18.961 44.548 14.126 42.551 10.571 38.986 C 7.006 35.421 5.009 30.596 5.009 25.557 L 5.009 25.557 L 5.009 25.557 L 5.009 25.557 L 5.009 25.557 L 5.009 25.557 L 5.009 25.557 Z  M 40.412 10.609 C 44.124 14.687 46.193 20.013 46.193 25.557 L 46.193 25.557 C 46.193 31.439 43.855 37.086 39.692 41.249 C 35.539 45.412 29.882 47.75 24 47.75 C 18.118 47.75 12.461 45.412 8.308 41.249 C 4.145 37.086 1.807 31.439 1.807 25.557 L 1.807 25.557 C 1.807 20.198 3.741 15.042 7.223 11.02 L 7.223 11.02 L 3.992 0.25 C 6.422 3.896 10.091 5.861 13.339 6.104 C 16.573 4.313 20.241 3.353 24 3.353 C 27.569 3.353 31.055 4.218 34.166 5.839 C 37.473 5.824 41.345 4.039 44.008 0.434 L 40.412 10.609 L 40.412 10.609 L 40.412 10.609 L 40.412 10.609 L 40.412 10.609 Z " fill-rule="evenodd" fill="url(#_lgradient_19)"/></svg>
